public/assets/img/icons/general-contracting.svg

<svg id="eScfbuLWoM91" xmlns="http://www.w3.org/2000/svg" xmlns:xlink="http://www.w3.org/1999/xlink" viewBox="0 0 42 42" shape-rendering="geometricPrecision" text-rendering="geometricPrecision" project-id="073c1378d4944ae5a1f57f30669d425f" export-id="df2f6be6e44841c498573ce901b5861c" cached="false">
<style><![CDATA[
#eScfbuLWoM92 {animation: eScfbuLWoM92_s_do 3000ms linear infinite normal forwards}@keyframes eScfbuLWoM92_s_do { 0% {stroke-dashoffset: 94.03} 33.333333% {stroke-dashoffset: 0} 100% {stroke-dashoffset: 0}} #eScfbuLWoM93_to {animation: eScfbuLWoM93_to__to 3000ms linear infinite normal forwards}@keyframes eScfbuLWoM93_to__to { 0% {transform: translate(29.125694px,13.351375px)} 33.333333% {transform: translate(29.125694px,13.351375px)} 66.666667% {transform: translate(27.831513px,15.026198px)} 100% {transform: translate(27.831513px,15.026198px)}}
]]></style>
<path id="eScfbuLWoM92" d="M20.6621,7.87134h-15.9474c-1.20018,0-2.16782.9652-2.16782,2.16236v27.7664c0,1.1972.96764,2.1624,2.16782,2.1624h26.1865c1.2001,0,2.1678-.9652,2.1678-2.1624v-13.9169" fill="none" stroke="#ee3524" stroke-width="1.5" stroke-linecap="round" stroke-linejoin="round" stroke-dashoffset="94.03" stroke-dasharray="94.03"/><g id="eScfbuLWoM93_to" transform="translate(29.125694,13.351375)"><path d="M22.7715,23.5765l-4.4707.5762.5776-4.4594c.045-.3741.2175-.7183.4725-.9802L35.2984,2.80595c.36-.35914.9601-.3367,1.3427.0449L39.649,5.85121c.3826.38159.4051.98017.045,1.33931L23.7466,23.0977c-.2625.2619-.6076.4265-.9826.4714l.0075.0074Z" transform="translate(-29.125694,-13.351375)" fill="none" stroke="#ee3524" stroke-width="1.5" stroke-linecap="round" stroke-linejoin="round"/></g></svg>

<svg width="42" height="42" viewBox="0 0 42 42" fill="none" xmlns="http://www.w3.org/2000/svg">
<path d="M20.6621 7.87134H4.7147C3.51452 7.87134 2.54688 8.83654 2.54688 10.0337V37.8001C2.54688 38.9973 3.51452 39.9625 4.7147 39.9625H30.9012C32.1013 39.9625 33.069 38.9973 33.069 37.8001V23.8832" stroke="#EE3524" stroke-width="1.5" stroke-linecap="round" stroke-linejoin="round"/>
<path d="M22.7715 23.5765L18.3008 24.1527L18.8784 19.6933C18.9234 19.3192 19.0959 18.975 19.3509 18.7131L35.2984 2.80595C35.6584 2.44681 36.2585 2.46925 36.6411 2.85085L39.649 5.85121C40.0316 6.2328 40.0541 6.83138 39.694 7.19052L23.7466 23.0977C23.4841 23.3596 23.139 23.5242 22.764 23.5691L22.7715 23.5765Z" stroke="#EE3524" stroke-width="1.5" stroke-linecap="round" stroke-linejoin="round"/>
</svg>
